X:1
T:Farewell He
M:4/4
L:1/4
K:C
 G,| C3/2 D/2 E F| G A2 A| G3/2 F/2 E D| C4-| C C/2C/2 E/2 F3/2| c3 E/2E/2|\
 F FF/2-G/2 A| G z2 G-| G C/2C/2 E G| c/2 c/2- c2 E| F3/2 F/2F/2-G/2 A|\
 G2- G/2 G G/2| C3/2 C/2 D E| F/2 D/2- D2 G/2A/2| G F D E| C4-| C3|\
